X:1
T:The Lost Elf  "arr. Kent Hiestand (play with Sean's Jig)"
M:6/8
L:1/8
Q:80
C:Traditional Irish
S:Jig
K:HP
{g}cA{d}A{gcd}c2e | \
{g}dcd{gef}e3 | \
{GAG}A3{gcd}c2e |
{g}dcA{g}A{d}G{e}G | \
{g}G{d}A{e}A{gcd}c2e | \
{g}dcd{gef}e3 |
{ag}a3ged | \
{gcd}c2A{gAGAG}A3 :| \
{gef}e2a{g}a3 |
gef{a}ged | \
{gef}e2a{g}a3 | \
gef{gf}g3 |
{gef}e2a{GdG}a3 | \
{g}agaged | \
{g}cde{gef}e2d |
{gcd}c2A{gAGAG}A3 :|
